frontend/public/svg/objects/anchor.svg

<svg width="160" height="156" viewBox="0 0 160 156" fill="none" xmlns="http://www.w3.org/2000/svg">
<g clip-path="url(#clip0)">
<path d="M88.8304 144.453C104.108 141.958 130.639 123.454 141.123 98.2733C140.202 97.5881 139.319 96.853 138.479 96.0713C136.444 94.0038 136.137 91.7033 137.576 90.0986C139.029 88.4755 141.324 88.3921 143.694 89.9726C145.373 91.0949 146.975 92.3295 148.616 93.5096C151.075 95.2817 153.564 97.0125 155.985 98.8338C156.895 99.4855 157.698 100.274 158.365 101.173C158.874 101.857 159.154 102.684 159.166 103.536C159.178 104.389 158.921 105.223 158.43 105.921C157.935 106.678 157.205 107.252 156.352 107.555C155.499 107.857 154.571 107.872 153.709 107.596C152.323 107.064 150.97 106.444 149.662 105.74C147.017 111.804 143.511 117.453 139.25 122.514C129.565 133.847 118.221 142.982 104.601 149.242C88.7352 156.534 72.8617 156.076 56.9381 149.595C45.9989 145.142 36.3442 138.649 27.6786 130.685C24.1739 127.526 20.8319 124.191 17.6654 120.693C14.7047 117.357 12.1581 113.653 9.29712 109.94C8.51168 110.46 7.69205 110.927 6.84381 111.338C6.02635 111.731 5.10015 111.839 4.21421 111.643C3.32827 111.447 2.53407 110.958 1.95933 110.256C0.953166 108.932 0.940053 107.186 1.98954 105.536C2.34098 104.96 2.77228 104.438 3.27064 103.983C6.99142 100.735 10.7188 97.4922 14.4974 94.3116C15.2265 93.7977 16.0258 93.3914 16.8707 93.1046C18.6605 92.3393 20.1878 92.9484 21.4552 94.2204C22.004 94.8708 22.3269 95.6821 22.3752 96.5314C22.4237 97.3813 22.195 98.2241 21.7236 98.9323C20.9534 100.026 20.0399 101.012 19.0077 101.863C17.9267 102.83 16.7151 103.651 15.4811 104.596C15.9121 106.93 17.0058 109.09 18.6316 110.819C29.3299 123.309 41.4893 133.963 56.7169 140.718C63.0933 143.531 69.9127 145.208 76.8666 145.672C78.2902 145.774 79.7276 145.687 81.0469 145.687C80.2205 122.21 79.406 99.0379 78.5771 75.543L59.1854 74.7311C59.1401 75.7077 59.1381 76.6666 59.0416 77.6157C58.9514 79.2933 58.7362 80.9624 58.3978 82.6078C58.1797 83.549 57.6455 84.3865 56.8842 84.9811C56.123 85.5758 55.1808 85.8915 54.2149 85.8751C53.3056 85.8304 52.4385 85.478 51.7552 84.8768C51.0718 84.2749 50.6127 83.4597 50.4529 82.5632C50.0369 80.5935 49.875 78.5779 49.9711 76.5669C50.1943 72.6479 50.6484 68.7394 51.1033 64.8376C51.2552 63.613 51.5671 62.4138 52.0313 61.2705C52.2432 60.6181 52.6694 60.0563 53.2407 59.6765C53.812 59.2967 54.4948 59.1209 55.1785 59.1779C55.9221 59.2005 56.629 59.5061 57.1549 60.0322C57.6809 60.5583 57.9862 61.2654 58.0086 62.0089C58.2186 63.781 58.43 65.5531 58.6748 67.6092C65.2625 68.5556 71.8214 67.9826 78.5961 68.0509V24.2279C77.3405 23.7902 75.9576 23.3874 74.6377 22.8341C69.4697 20.6682 66.7426 16.5273 67.3944 11.9356C68.2063 6.22019 72.4659 1.44139 77.6864 0.935351C81.2523 0.566016 84.8451 0.547196 88.4149 0.879425C95.8125 1.62831 99.3626 7.33984 97.0392 14.3797C95.5487 18.8973 92.6371 22.1397 88.0926 23.791C87.6726 23.9439 87.2433 24.0718 86.8266 24.2326C86.734 24.268 86.6769 24.3934 86.2917 24.8358C86.7426 38.7954 87.2046 53.103 87.67 67.4385H112.296C112.545 65.9592 112.736 64.6526 112.992 63.3583C113.165 62.4873 113.198 61.4457 113.71 60.8209C114.353 60.0385 115.394 59.2076 116.313 59.1472C117.035 59.0993 118.013 60.0602 118.545 60.8084C119.016 61.5735 119.272 62.4518 119.286 63.3504C119.533 68.1723 119.787 72.9984 119.827 77.8244C119.785 79.3865 119.437 80.925 118.805 82.3532C118.536 83.0469 118.046 83.6317 117.409 84.0157C116.773 84.3996 116.027 84.5617 115.289 84.4758C114.603 84.4639 113.939 84.2349 113.392 83.822C112.844 83.4099 112.442 82.8343 112.242 82.1786C111.693 80.2752 111.448 78.2871 111.006 75.9821H87.7678C88.1228 98.7334 88.4773 121.557 88.8304 144.453ZM82.0885 17.88C86.0042 17.706 88.6197 15.7973 89.3482 12.4126C89.8274 10.1876 88.9374 8.37148 86.7426 7.65541C84.9508 7.00485 83.0815 6.59209 81.1827 6.42753C79.6259 6.36422 78.0782 6.68659 76.6763 7.36603C74.4605 8.46934 73.711 10.7449 73.7182 13.0407C73.7248 15.1266 75.4903 16.0855 77.2184 16.686C78.791 17.2314 80.4614 17.4927 82.0885 17.88Z" fill="black"/>
</g>
<defs>
<clipPath id="clip0">
<rect width="158.834" height="154.896" fill="white" transform="translate(0.829102 0.173828)"/>
</clipPath>
</defs>
</svg>

<svg xmlns="http://www.w3.org/2000/svg" width="160" height="156" fill="none" viewBox="0 0 160 156"><g clip-path="url(#a)"><path fill="#000" d="M88.83 144.453c15.278-2.495 41.809-20.999 52.293-46.18a31 31 0 0 1-2.644-2.202c-2.035-2.067-2.342-4.368-.903-5.972 1.453-1.624 3.748-1.707 6.118-.126 1.679 1.122 3.281 2.356 4.922 3.537 2.459 1.772 4.948 3.502 7.369 5.324.91.651 1.713 1.44 2.38 2.339a4.05 4.05 0 0 1 .065 4.748 4.14 4.14 0 0 1-4.721 1.675 35 35 0 0 1-4.047-1.856 68.7 68.7 0 0 1-10.412 16.774c-9.685 11.333-21.029 20.468-34.649 26.728-15.866 7.292-31.74 6.834-47.663.353-10.94-4.453-20.594-10.946-29.26-18.91a139 139 0 0 1-10.013-9.992c-2.96-3.336-5.507-7.04-8.368-10.753a21 21 0 0 1-2.453 1.398 4.044 4.044 0 0 1-4.884-1.082c-1.007-1.324-1.02-3.07.03-4.72a7.1 7.1 0 0 1 1.28-1.553c3.721-3.248 7.449-6.49 11.227-9.671a9.3 9.3 0 0 1 2.374-1.207c1.79-.766 3.317-.157 4.584 1.115a3.93 3.93 0 0 1 .269 4.712 15 15 0 0 1-2.716 2.931c-1.081.967-2.293 1.788-3.527 2.733a12.36 12.36 0 0 0 3.15 6.223c10.699 12.49 22.858 23.144 38.086 29.899a59.8 59.8 0 0 0 20.15 4.954c1.423.102 2.86.015 4.18.015-.826-23.477-1.641-46.65-2.47-70.144l-19.392-.812c-.045.977-.047 1.936-.143 2.885a34 34 0 0 1-.644 4.992 4.22 4.22 0 0 1-4.183 3.267 4.02 4.02 0 0 1-3.762-3.312 23.6 23.6 0 0 1-.482-5.996c.223-3.92.677-7.828 1.132-11.73a14 14 0 0 1 .928-3.567 3.04 3.04 0 0 1 3.148-2.092 2.92 2.92 0 0 1 2.83 2.83l.666 5.601c6.588.947 13.146.374 19.921.442V24.228c-1.255-.438-2.638-.84-3.958-1.394-5.168-2.166-7.895-6.307-7.244-10.898.812-5.716 5.072-10.495 10.292-11A55 55 0 0 1 88.415.878c7.397.75 10.948 6.46 8.624 13.5-1.49 4.518-4.402 7.76-8.946 9.412-.42.153-.85.28-1.266.442-.093.035-.15.16-.535.603.45 13.96.913 28.267 1.378 42.603h24.626c.249-1.48.44-2.786.696-4.08.173-.872.206-1.913.718-2.538.643-.782 1.684-1.613 2.603-1.674.722-.048 1.7.913 2.232 1.661.471.766.727 1.644.741 2.542.247 4.822.501 9.648.541 14.474a12 12 0 0 1-1.022 4.53 3.356 3.356 0 0 1-3.516 2.122 3.24 3.24 0 0 1-3.047-2.297c-.549-1.904-.794-3.892-1.236-6.197H87.768q.533 34.127 1.062 68.471M82.088 17.88c3.916-.174 6.532-2.083 7.26-5.467.48-2.225-.41-4.042-2.605-4.758a21.8 21.8 0 0 0-5.56-1.227 9.45 9.45 0 0 0-4.507.938c-2.216 1.103-2.965 3.379-2.958 5.675.007 2.086 1.772 3.044 3.5 3.645 1.573.545 3.243.807 4.87 1.194"/></g><defs><clipPath id="a"><path fill="#fff" d="M.83.174h158.833V155.07H.83z"/></clipPath></defs></svg>
